zag2/images/icons/scroll-down.svg

<svg width="39" height="63" viewBox="0 0 39 63" fill="none" xmlns="http://www.w3.org/2000/svg">
<g clip-path="url(#clip0)">
<path d="M19.0301 0C12.8303 0 7.78652 5.04377 7.78652 11.2436V26.9812C7.78652 33.181 12.8303 38.2247 19.0301 38.2247C25.2299 38.2247 30.2736 33.181 30.2736 26.9812V11.2436C30.2736 5.04377 25.2299 0 19.0301 0ZM27.9803 26.9812C27.9803 31.9161 23.9651 35.9313 19.0301 35.9313C14.0951 35.9313 10.0799 31.9161 10.0799 26.9812V11.2436C10.0799 6.30857 14.0951 2.29339 19.0301 2.29339C23.9651 2.29339 27.9803 6.30857 27.9803 11.2436V26.9812Z" fill="white"/>
<path d="M18.8433 7.604C18.2099 7.604 17.6966 8.11728 17.6966 8.7507V14.0286C17.6966 14.6618 18.2099 15.1753 18.8433 15.1753C19.4765 15.1753 19.99 14.6618 19.99 14.0286V8.7507C19.99 8.11728 19.4767 7.604 18.8433 7.604Z" fill="white"/>
</g>
<path d="M23 56L19 61C17.4379 59.0474 16.5621 57.9526 15 56" stroke="white" stroke-width="1.5" stroke-linecap="round"/>
<line x1="19" y1="59" x2="19" y2="48" stroke="white" stroke-width="2" stroke-linecap="round"/>
<defs>
<clipPath id="clip0">
<rect width="38.2247" height="38.2247" fill="white"/>
</clipPath>
</defs>
</svg>

<svg width="39" height="63" fill="none" xmlns="http://www.w3.org/2000/svg"><g clip-path="url(#clip0)" fill="#fff"><path d="M19.03 0C12.83 0 7.787 5.044 7.787 11.244V26.98c0 6.2 5.043 11.244 11.243 11.244S30.274 33.18 30.274 26.98V11.244C30.274 5.044 25.23 0 19.03 0zm8.95 26.981c0 4.935-4.015 8.95-8.95 8.95s-8.95-4.015-8.95-8.95V11.244c0-4.935 4.015-8.95 8.95-8.95s8.95 4.015 8.95 8.95V26.98z"/><path d="M18.843 7.604c-.633 0-1.146.513-1.146 1.147v5.278a1.147 1.147 0 002.293 0V8.75c0-.634-.513-1.147-1.147-1.147z"/></g><path d="M23 56l-4 5-4-5" stroke="#fff" stroke-width="1.5" stroke-linecap="round"/><path stroke="#fff" stroke-width="2" stroke-linecap="round" d="M19 59V48"/><defs><clipPath id="clip0"><path fill="#fff" d="M0 0h38.225v38.225H0z"/></clipPath></defs></svg>
